X:1
T:Title
%%score ( 1 2 ) { 3 | 4 }
L:1/8
Q:1/4=112
M:4/4
K:D
V:1 treble nm="Grand Piano, Soprano"
V:2 treble 
V:3 bass nm="Choir Pad, Reno, Sheppard"
V:4 bass 
V:1
 [DF]3 [CE] [DF]2 [DG]2 | A4 z4 | [CE]3 [DF] [DG]2 [CA]2 | [DF]8 | [B,B]3 [CB] [DB]2 [EB]2 | %5
w: By~Henry~Fleetwood~Sheppard~(1824\-1901) * * *|||||
 [FA]4 [DF]4 | E3 [CA] [Ec]2 [DB]2 | [CA]8 | D3 [CE] [DF]2 [DG]2 | [CE]4 C4 | %10
w: |||||
 [CE]3 [DF] [CG]2 [CB]2 | [DA]8 | [Dd]3 [DA] [Dc]2 [DB]2 | [DA]4 [^DF]4 | E3 [DE] [CE]2 [CF]2 | %15
w: |||||
 D8 | [DF]3 [EF] [DF]2 [DG]2 | z4 F4 | [EG]3 [EG] [EG]2 [CA]2 | [DF]8 | [Dd]3 A [Ac]2 [GB]2 | %21
w: ||||||
 [FA]2 [DF]2 D2 [DG]2 | [DF]4 [CE]4 | D6 z2 |] %24
w: |||
V:2
 x8 | D2 C2 [DF]4 | x8 | x8 | x8 | x8 | x8 | x8 | x8 | x8 | x8 | x8 | x8 | x8 | x8 | x8 | x8 | %17
 [CF]4 D2 ^D2 | x8 | x8 | x8 | x8 | x8 | x8 |] %24
V:3
 A,3 A, A,2 G,2 | E,2 A,2 A,4 | A,3 A, G,2 E,2 | D,8 | G,3 G, G,2 G,2 | F,4 A,4 | A,3 A, A,2 ^G,2 | %7
 A,8 | F,3 A, A,2 B,2 | A,4 A,4 | A,3 A, A,2 A,2 | A,8 | A,3 A, G,2 G,2 | A,4 A,4 | %14
 G,3 ^G, A,2 =G,2 | F,8 | B,3 ^A, B,2 B,2 | B,2 ^A,2 B,4 | B,3 B, A,2 A,2 | A,8 | A,3 A, D2 D2 | %21
 D2 A,2 B,2 B,2 | A,4 G,4 | F,6 z2 |] %24
V:4
 D,3 A,, D,2 B,,2 | A,,4 D,4 | A,,3 D, B,,2 A,,2 | z8 | G,,3 A,, B,,2 C,2 | D,4 D,4 | %6
 C,3 F, E,2 E,2 | A,,8 | D,3 A,, D,2 G,,2 | A,,4 A,,4 | G,3 F, E,2 G,2 | F,8 | F,3 F, z4 | %13
 F,4 B,,4 | E,3 E, A,,2 A,,2 | D,8 | B,,3 B,, D,2 E,2 | F,4 B,,4 | E,3 D, C,2 A,,2 | D,8 | %20
 F,3 F, G,2 B,2 | z2 D,2 B,,2 G,,2 | A,,4 A,,4 | D,6 z2 |] %24

